X:1
T:The Coming of the King
T:The Coming of the King
T:Daniel Brink Towner
T:Rebecca Smith Pollard, 1901
T:Public Domain Courtesy of the Cyber Hymnal™
T:Public Domain Courtesy of the Cyber Hymnal™
C:Daniel Brink Towner
Z:Public Domain
Z:Courtesy of the Cyber Hymnal™
%%score ( 1 2 ) ( 3 4 )
L:1/8
Q:1/4=87
M:4/4
K:Eb
V:1 treble 
V:2 treble 
V:3 bass 
V:4 bass 
V:1
 E[EF] | [EG]<[EG] [EG][EG] [GB]<[EG] [B,F]>[B,E] | [EG]6 E[EF] | %3
w: 1.~Are you|wait- ing for the com- ing of the|King? Have your|
w: 2.~Are you|wait- ing for the com- ing of the|King? Are you|
w: 3.~Are you|list- ening for the com- ing of the|King? Have your|
w: 4.~Are you|watch- ing for the com- ing of the|King? For the|
 [EG][EA][EB][Ec] [EB][GB] [FA]>[EG] | [DF]6 [DF][EG] | [FA][FA] [FA]>[GB] [FA]2 [EG][DF] | %6
w: lives been purged of all their sin and|dross? With the|heal- ing blood ap- plied, Can you|
w: rea- dy in your hearts and in your|homes? Are you|long- ing for the day When the|
w: sins tho’ scar- let all been blot- ted|out? Are they|spot- less robes you wear For the|
w: light to break re- splend- ent in the|east? For the|gates to o- pen wide When the|
 [EG][FA] [GB]>[Ac] [GB]2 [GB][GB] | [Ge]>[Ae] [Be][Ac] [GB][EG] [DF]>E | E6 || %9
w: praise the Cru- ci- fied For your|glo- ri- ous re- demp- tion thro’ the|cross?|
w: mists shall roll a- way And re-|veal the Lord of glo- ry when He|comes?|
w: meet- ing in the air When des-|cend- ing hosts pro- claim Him with a|shout?|
w: Bride- groom with His bride Shall as-|cend to cel- e- brate the mar- riage|feast?|
"^Refrain" [EG][FA] | [GB]<[EG] [B,F]>[B,E] !fermata![EG]2 [EG][FA] | %11
w: ||
w: Are you|look- ing for the King? For the|
w: ||
w: ||
 [GB]<[EG] [B,F]>[B,E] !fermata![EG]2 [EG][FA] | [GB][Ge][Ae][Ac] [GB]<[EG] [EF]>E | %13
w: ||
w: com- ing of the King? Are your|lamps all trimmed and burn- ing while He|
w: ||
w: ||
 [DF]6 [EG][FA] | [GB]>[EG] [B,F][B,E] !fermata![EG]2 [EG][FA] | %15
w: ||
w: waits? Can you|join the ran- somed throng In their|
w: ||
w: ||
 [GB]>[EG] [B,F][B,E] !fermata![EG]2 [GB][GB] | [Ge]>[Ae] [Be][Ac] [GB][EG] [DF]>E | E6 |] %18
w: |||
w: grand, tri- umph- ant song, As the|shin- ing ones come sweep- ing thro’ the|gates?|
w: |||
w: |||
V:2
 E x | x8 | x6 E x | x8 | x8 | x8 | x8 | x15/2 E/ | E6 || x2 | x8 | x8 | x15/2 E/ | x8 | x8 | x8 | %16
 x15/2 E/ | E6 |] %18
V:3
 [E,G,][E,A,] | [E,B,]<[E,B,] [E,B,][E,B,] [E,E]<[E,B,] [E,A,]>[E,G,] | [E,B,]6 [E,G,][E,A,] | %3
 [E,B,][E,E][G,E][A,E] [G,E][E,E] [D,B,]>[E,B,] | [B,,B,]6 [B,,B,][B,,B,] | %5
 [B,,B,][B,,B,] [B,,B,]>[B,,B,] [B,,B,]2 [B,,B,][B,,B,] | %6
 [E,B,][E,E] [E,E]>[E,E] [E,E]2 [E,E][E,E] | [E,B,]>[F,B,] [G,B,][A,E] [B,E]B, [B,,A,]>[E,G,] | %8
 [E,G,]6 || [E,B,][E,B,] | [E,E]<[E,B,] [E,A,]>[E,G,] !fermata![E,B,]2 [E,B,][E,B,] | %11
 [E,E]<[E,B,] [E,A,]>[E,G,] !fermata![E,B,]2 [E,B,][E,B,] | %12
 [E,E][E,B,][A,C][A,E] [E,E]<[E,B,] [C,=A,]>[C,A,] | [B,,B,]6 [E,B,][E,B,] | %14
 [E,E]>[E,B,] [E,A,][E,G,] !fermata![E,B,]2 [E,B,][E,B,] | %15
 [E,E]>[E,B,] [E,A,][E,G,] !fermata![E,B,]2 [E,E][E,E] | %16
 [E,B,]>[F,B,] [G,B,][A,E] [B,E]B, [B,,A,]>[E,G,] | [E,G,]6 |] %18
V:4
 x2 | x8 | x8 | x8 | x8 | x8 | x8 | x5 B, x2 | x6 || x2 | x8 | x8 | x8 | x8 | x8 | x8 | x5 B, x2 | %17
 x6 |] %18

